images/originals/twitter.svg

<?xml version="1.0" encoding="UTF-8" standalone="no"?>
<svg width="35px" height="35px" viewBox="0 0 35 35" version="1.1" xmlns="http://www.w3.org/2000/svg" xmlns:xlink="http://www.w3.org/1999/xlink">
    <!-- Generator: Sketch 3.6.1 (26313) - http://www.bohemiancoding.com/sketch -->
    <title>twitter</title>
    <desc>Created with Sketch.</desc>
    <defs></defs>
    <g id="Page-1" stroke="none" stroke-width="1" fill="none" fill-rule="evenodd">
        <g id="twitter">
            <g id="Page-1">
                <g id="twitter">
                    <g id="Page-1">
                        <g id="Twitter">
                            <path d="M17.5,35 C27.1649836,35 35,27.1649836 35,17.5 C35,7.8350164 27.1649836,0 17.5,0 C7.8350164,0 0,7.8350164 0,17.5 C0,27.1649836 7.8350164,35 17.5,35 L17.5,35 L17.5,35 Z" id="Oval-1" fill-opacity="0.01" fill="#FFFFFF"></path>
                            <path d="M17.6822554,13.5542975 L17.729944,14.3761011 L16.9351333,14.2754721 C14.0420225,13.8897275 11.5145246,12.5815504 9.3685358,10.3844837 L8.3193857,9.2943361 L8.0491501,10.0993681 C7.4768864,11.8939188 7.8424993,13.7890985 9.0347153,15.0637326 C9.6705638,15.7681357 9.5274979,15.8687647 8.4306592,15.4494772 C8.0491501,15.3153051 7.7153296,15.2146761 7.6835371,15.2649907 C7.5722637,15.3823912 7.9537728,16.9085978 8.2558008,17.5123719 C8.6691024,18.350947 9.5116017,19.1727505 10.433582,19.6591241 L11.2124965,20.0448686 L10.2905161,20.0616401 C9.4003282,20.0616401 9.3685358,20.0784116 9.4639131,20.4306131 C9.7818374,21.5207608 11.0376382,22.6779944 12.436505,23.1811394 L13.4220701,23.533341 L12.5636746,24.070029 C11.2919776,24.8415181 9.7977335,25.2775772 8.3034895,25.3111202 C7.5881599,25.3278916 7,25.3949776 7,25.4452922 C7,25.6130071 8.939338,26.5522113 10.0679692,26.9211843 C13.4538626,28.0113319 17.4756046,27.5417298 20.4958851,25.6800932 C22.6418739,24.3551445 24.7878628,21.7220188 25.7893242,19.1727505 C26.3297954,17.8142589 26.8702667,15.3320767 26.8702667,14.1413 C26.8702667,13.369811 26.9179553,13.269182 27.8081432,12.3467494 C28.3327183,11.8100613 28.8255009,11.2230588 28.9208782,11.0553437 C29.0798403,10.7366852 29.0639442,10.7366852 28.2532373,11.0218007 C26.9020591,11.5249458 26.7113045,11.4578598 27.3789455,10.7031422 C27.8717281,10.1664541 28.459888,9.1937071 28.459888,8.9085915 C28.459888,8.858277 28.2214448,8.9421346 27.9512092,9.093078 C27.6650773,9.2607931 27.0292288,9.5123656 26.5523424,9.6633091 L25.6939469,9.9484246 L24.9150324,9.394965 C24.4858346,9.093078 23.8817786,8.757648 23.5638543,8.657019 C22.7531474,8.422218 21.5132428,8.455761 20.7820169,8.724105 C18.7949903,9.4788226 17.5391894,11.4243168 17.6822554,13.5542975 C17.6822554,13.5542975 17.5391894,11.4243168 17.6822554,13.5542975 L17.6822554,13.5542975 L17.6822554,13.5542975 Z" id="Oval-1-path" fill="#2BABEE"></path>
                        </g>
                    </g>
                </g>
            </g>
        </g>
    </g>
</svg>

<svg width="35" height="35" viewBox="0 0 35 35" xmlns="http://www.w3.org/2000/svg"><title>twitter</title><g fill="none" fill-rule="evenodd"><path d="M17.5 35C27.165 35 35 27.165 35 17.5S27.165 0 17.5 0 0 7.835 0 17.5 7.835 35 17.5 35z" fill-opacity=".01" fill="#FFF"/><path d="M17.682 13.554l.048.822-.795-.1c-2.893-.386-5.42-1.694-7.566-3.892l-1.05-1.09-.27.805c-.573 1.794-.208 3.69.985 4.964.636.704.492.805-.604.385-.38-.135-.715-.235-.746-.185-.112.117.27 1.644.572 2.247.413.84 1.256 1.66 2.178 2.147l.778.385-.92.017c-.892 0-.923.016-.828.37.318 1.09 1.574 2.246 2.973 2.75l.985.35-.858.538a8.66 8.66 0 0 1-4.26 1.24c-.716.018-1.304.085-1.304.135 0 .168 1.94 1.107 3.068 1.476 3.386 1.09 7.408.622 10.428-1.24 2.146-1.325 4.292-3.958 5.293-6.507.54-1.36 1.08-3.84 1.08-5.032 0-.77.048-.87.938-1.793.525-.537 1.018-1.124 1.113-1.292.16-.318.144-.318-.667-.033-1.35.503-1.542.436-.874-.32.492-.536 1.08-1.508 1.08-1.793 0-.052-.24.032-.51.183-.285.168-.92.42-1.398.57l-.858.285-.78-.553c-.428-.302-1.032-.637-1.35-.738-.81-.235-2.05-.2-2.782.067a4.806 4.806 0 0 0-3.1 4.83s-.143-2.13 0 0z" fill="#2BABEE"/></g></svg>
